**kern
*ICvox
*b-:
*M4/4
*clefF4
r;
=1
*>Letter>A
*>Label>Intro
1.42
=2
1.52
1.55
8r
1.56
1.57
1.59
1.6
=3
1.62
1.65
1.66
1.67
1.67
1.68
1.69
1.69
1.7
=4
1.73
1.83
.
.
=5
4r
1.85
1.86
1.88
1.89
1.9
=6
10.1
10.23
.
.
.
.
.
.
.
=7
1r
10.36
.
.
.
.
.
.
=8
1r
10.48
.
.
.
.
.
.
.
=9
1r
10.61
.
.
.
.
.
.
=10
*>Letter>B
*>Label>Instrumental
17.98
18.05
.
.
.
16A-
18.06
18.08
16F
18.09
18.09
=11
18.11
18.14
8r
18.16
8A-
18.17
18.18
18.2
8F
18.22
16F
18.23
=12
18.24
18.3
.
.
.
16A-
18.31
18.33
16F
18.34
18.35
=13
18.36
18.39
8r
18.41
8A-
18.43
18.43
18.46
16F
18.47
18.47
=14
26.41
26.43
26.44
4r
26.48
2r
26.54
.
.
=15
8A-
26.56
26.57
26.6
2r
26.67
.
.
.
=16
8A-
26.68
26.7
4r
26.73
2r
26.79
.
.
=17
8D-
26.81
26.82
26.83
26.84
16D-
26.85
26.86
26.87
26.89
.
4r
26.92
.
=18
*>Letter>B
*>Label>Chorus
34.14
34.27
.
.
.
.
.
.
.
.
.
=19
1r
34.4
.
.
.
.
.
.
.
.
=20
1r
34.52
.
.
.
.
.
.
.
.
.
=21
1r
34.65
.
.
.
.
.
.
.
.
.
.
.
=22
42.14
42.27
.
.
.
.
.
.
.
.
.
=23
1r
42.4
.
.
.
.
.
.
.
.
=24
1r
42.52
.
.
.
.
.
.
.
.
.
=25
1r
42.65
.
.
.
.
.
.
.
.
.
=26
*>Letter>A
*>Label>Verse
49.55
49.57
49.58
8r
49.6
49.61
49.61
49.62
49.64
49.65
49.66
49.67
=27
49.68
49.69
49.7
49.71
49.73
49.74
49.75
49.76
49.76
49.77
49.79
=28
49.8
49.81
49.83
49.84
49.85
49.87
49.88
49.88
49.9
49.92
=29
49.93
49.94
49.95
49.95
49.96
49.98
49.99
50
50.01
50.02
50.03
50.04
=30
57.44
57.46
57.47
57.48
57.48
57.5
57.51
57.52
57.53
57.54
57.55
57.55
=31
57.57
57.59
57.59
57.6
57.61
57.63
57.63
57.65
57.67
57.67
57.68
57.69
=32
57.7
57.7
57.71
57.72
57.73
57.74
57.74
57.75
57.76
57.77
57.78
57.79
57.8
57.81
=33
57.82
57.83
57.85
57.86
57.87
57.88
57.89
57.89
57.91
57.92
57.93
57.93
=34
*>Letter>B
*>Label>Prechorus
65.35
65.37
65.38
65.41
65.42
65.44
65.45
=35
65.48
65.49
65.51
65.54
65.56
65.57
65.59
=36
65.6
65.67
65.69
65.7
65.71
65.72
=37
65.73
65.75
65.76
65.8
65.86
.
.
=38
*>Letter>B
*>Label>Chorus
73.23
73.36
.
.
.
.
.
.
.
.
.
=39
1r
73.49
.
.
.
.
.
.
.
.
=40
1r
73.61
.
.
.
.
.
.
.
.
.
=41
1r
73.74
.
.
.
.
.
.
.
.
.
.
.
=42
81.14
81.27
.
.
.
.
.
.
.
.
.
=43
1r
81.4
.
.
.
.
.
.
.
.
=44
1r
81.52
.
.
.
.
.
.
.
.
.
=45
1r
81.65
.
.
.
.
.
.
.
.
.
=46
*>Letter>A
*>Label>Verse
89.01
89.02
89.03
89.04
8f
89.06
89.07
89.09
89.11
89.13
=47
89.14
89.17
89.18
89.18
89.19
89.2
89.21
89.22
89.23
89.24
=48
89.26
89.28
89.29
89.29
89.3
89.32
89.33
89.33
89.35
89.36
89.37
=49
89.39
89.41
89.41
89.42
89.43
89.44
89.44
89.45
89.46
89.48
89.48
89.5
89.51
=50
96.94
96.95
96.96
96.96
96.97
96.98
96.99
97
97
97.01
97.02
97.03
97.04
97.04
97.05
=51
97.07
97.08
97.08
97.09
97.1
97.11
97.12
97.12
97.13
97.15
97.16
97.16
97.18
=52
97.2
97.2
97.21
97.23
8f
97.24
97.25
97.26
97.27
97.27
97.29
97.31
=53
97.32
97.35
97.35
97.36
97.38
97.39
97.39
97.4
97.42
97.43
=54
*>Letter>B
*>Label>Prechorus
104.82
104.88
104.89
104.9
104.91
=55
104.94
104.95
104.97
105
105.02
105.04
105.05
=56
105.07
105.13
105.15
105.16
105.17
105.18
=57
105.19
105.21
105.23
105.26
105.32
.
.
=58
*>Letter>B
*>Label>Chorus
112.73
112.85
.
.
.
.
.
.
.
.
.
=59
1r
112.98
.
.
.
.
.
.
.
.
=60
1r
113.11
.
.
.
.
.
.
.
.
.
=61
1r
113.23
.
.
.
.
.
.
.
.
.
.
.
=62
120.59
120.72
.
.
.
.
.
.
.
.
.
=63
1r
120.85
.
.
.
.
.
.
.
.
=64
1r
120.97
.
.
.
.
.
.
.
.
.
=65
4r
121.01
.
.
8r
121.02
16e-
121.03
121.04
121.05
121.06
121.07
121.09
8r
=66
*>Letter>C
*>Label>Bridge
128.48
=67
128.6
=68
128.73
=69
128.86
=70
136.38
=71
136.51
=72
136.63
=73
136.76
=74
*>Letter>A
*>Label>Verse
144.26
144.29
.
8f
144.3
16F
144.31
144.32
144.33
144.34
144.35
144.37
16c
=75
144.38
144.4
144.41
144.42
144.43
144.44
144.45
144.46
144.47
144.48
144.5
16c
=76
144.51
144.52
144.54
8e-
144.55
16d-
144.56
144.57
144.58
144.59
144.6
144.61
=77
144.63
144.64
144.65
144.66
144.66
144.67
144.68
144.69
144.7
144.7
144.71
144.72
144.73
144.74
=78
152.2
152.21
152.22
152.23
8.f
152.26
152.27
152.28
152.29
152.3
152.31
152.32
=79
152.33
152.35
152.36
152.38
152.39
152.39
152.4
152.41
152.43
152.45
=80
152.46
152.47
152.47
152.49
6e-
152.51
152.52
152.53
152.54
152.55
152.56
152.58
=81
152.59
152.6
152.62
152.63
152.63
152.64
152.65
152.67
152.67
152.68
152.69
152.7
=82
*>Letter>B
*>Label>Prechorus
160.04
160.05
160.07
160.1
160.13
160.15
=83
160.16
160.18
160.19
160.23
160.26
160.27
160.28
=84
160.29
160.3
160.3
160.31
160.32
160.35
160.38
160.4
=85
160.42
160.43
160.45
160.48
160.54
.
.
=86
*>Letter>B
*>Label>Chorus
167.95
168.08
.
.
.
.
.
.
.
.
.
=87
1r
168.2
.
.
.
.
.
.
.
.
=88
1r
168.33
.
.
.
.
.
.
.
.
.
=89
1r
168.46
.
.
.
.
.
.
.
.
.
.
.
=90
175.84
175.97
.
.
.
.
.
.
.
.
.
=91
1r
176.1
.
.
.
.
.
.
.
.
=92
1r
176.23
.
.
.
.
.
.
.
.
.
=93
1r
176.35
.
.
.
.
.
.
.
.
.
=94
*>Letter>A
*>Label>Verse
183.73
183.75
183.76
183.77
183.78
183.79
183.8
183.81
183.81
183.82
183.83
183.84
183.84
183.85
=95
183.86
183.87
183.88
183.89
183.9
183.91
183.92
183.92
183.93
183.94
183.96
183.96
183.97
=96
183.99
184
184.01
184.02
184.03
184.03
184.04
184.05
184.06
184.07
184.08
184.1
=97
184.11
184.12
184.13
184.14
184.15
184.15
184.17
184.18
184.18
184.19
184.2
184.21
184.22
184.23
=98
191.63
191.65
191.67
191.68
191.7
191.71
191.73
191.74
191.74
191.75
=99
191.76
191.77
191.78
191.79
191.8
191.81
191.82
191.82
191.83
191.84
191.85
191.86
191.86
191.87
=100
191.89
191.9
191.91
191.92
191.93
191.93
191.94
191.95
191.96
191.97
191.97
191.98
191.99
192
=101
192.01
192.03
192.05
192.05
192.06
192.07
192.08
192.08
192.1
192.11
192.12
192.12
=102
*>Letter>B
*>Label>Solo
199.53
199.55
199.57
199.6
=103
199.66
199.79
=104
1r
199.91
=105
1r
200.04
=106
207.44
207.57
=107
1r
207.7
=108
1r
207.82
=109
1r
207.95
.
.
.
=110
*>Letter>B
*>Label>Chorus
215.31
215.44
.
.
.
.
.
.
=111
16g-
215.45
215.46
215.47
215.49
215.49
215.5
215.52
215.53
215.57
=112
1r
215.69
.
.
.
.
.
=113
2r
215.75
.
.
.
.
8g-
215.77
215.79
215.8
=114
223.21
223.34
.
.
.
.
.
.
=115
1r
223.47
.
.
.
=116
1r
223.59
.
.
.
.
.
=117
4r
223.63
.
.
8.r
223.65
[16g-
223.66
223.67
223.67
223.69
223.71
=118
*>Letter>B
*>Label>Chorus
231.08
231.21
.
.
.
.
.
.
.
.
.
=119
1r
231.33
.
.
.
.
.
.
.
.
=120
1r
231.46
.
.
.
.
.
.
.
.
.
=121
1r
231.58
.
.
.
.
.
.
.
.
.
.
.
=122
239.02
239.15
.
.
.
.
.
.
.
.
.
=123
1r
239.27
.
.
.
.
.
.
.
.
=124
1r
239.4
.
.
.
.
.
.
.
.
.
=125
1r
239.53
.
.
.
.
.
.
.
.
.
=126
*>Letter>B2
*>Label>Solo
246.89
247.01
=127
1r
247.14
=128
1r
247.27
=129
1r
247.4
=130
254.75
254.87
=131
1r
255
=132
1r
255.12
=133
1r
255.25
262.66
268.84
r;
*-
!!!BillboardChartDate: 1991/11/09, 1991/11/09
!!!BillboardPeak: 1, 1
!!!BillboardWeeksOnChart: 19, 19
!!!COC: Marky Mark
!!!ENC: Nathaniel Condit-Schultz
!!!EST: Awating manual error checking and editing.
!!!OTL: Good Vibrations
!!!RDF**chordsym: original McGill chord annotation + (implied pitch class set, with bass pitch in first position)
!!!RDF**harmony: **recip + pitch class of root + harmonic quality
!!!RDF**leadinstrument: original McGill primary instrumentation annotation
!!!RDF**phrase: newline = linebreak in original McGill transcription
!!!RDF**timestamp: McGill audio timestamp in seconds
!!!RDT: 2017/01/12/
!!!SampleActualRank: 31, 31
!!!SampleID#: 352, 503
!!!SampleTargetRank: 31, 30
